X:1
T:Praetorius, CM
T:Harmoniae Hymnorum Scholae Gorlicensis, 1599
T:Praetorius, CM
T:Public Domain
C:Harmoniae Hymnorum Scholae Gorlicensis, 1599
Z:Public Domain
%%score ( 1 2 ) 3
L:1/8
M:4/4
K:F
V:1 treble 
V:2 treble 
V:3 bass 
V:1
 F2 | [Gc]2 [Ac]2 [Fd]2 [Fc]2 | [Fc]3 [EB] [FA]2 F2 | [EG]2 [FA]2 [FB]2 [FB]2 | [FA]6 [FA]2 | %5
 [FA]2 [Fc]2 [FB]2 [EG]2 | [FA]2 [=B,F]2 [CE]2 C2 | [B,D]2 [B,F]2 [CF]2 [CE]2 | [CF]6 |] %9
V:2
 F2 | x8 | x6 F2 | x8 | x8 | x8 | x6 C2 | x8 | x6 |] %9
V:3
 [F,A,]2 | [E,C]2 [F,C]2 [B,,B,]2 [F,A,]2 | [C,G,]3 [C,C] [F,C]2 [A,,C]2 | %3
 [C,C]2 [F,C]2 [B,,D]2 [B,,D]2 | [F,C]6 [F,C]2 | [D,D]2 [A,,C]2 [B,,D]2 [C,C]2 | %6
 [F,C]2 [D,F,]2 [C,G,]2 [A,,F,]2 | [B,,F,]2 [D,F,]2 [C,G,]2 [C,G,]2 | [F,A,]6 |] %9

